X:9
T:No 9 Scholtz
T:Schottis ur Carl Jakob Blomgrens notbok (Ma13f)
R:Schottis
S:Carl Jakob Blomgren
O:Hässlund, SKåne
B:Carl Jakob Blomgrens notbok
N:Datering: 1844-1917
N:FMK Ma13f.1.10.
M:2/4
L:1/16
K:G
Q:80
BcBA GFGB|AGAc B2G2|BcBA GFGB|AGAB G4:|
|:AGAc BABd|AGAc B2G2|AGAc BABd|AGAB G4:|

